assets/images/icon-map-pic.svg

<svg width="122" height="122" viewBox="0 0 122 122" fill="none" xmlns="http://www.w3.org/2000/svg">
<path opacity="0.1" d="M58.9321 14.0275C30.0458 14.7804 6.04843 31.521 3.27606 52.8896C2.70966 57.1633 3.03758 61.3042 4.05113 65.2679C4.05113 65.2679 4.14056 65.7329 4.43867 66.6187C5.33298 69.5859 6.67445 72.4646 8.34383 75.1661C14.1569 85.3965 27.6013 102.514 57.7695 121.136C59.6177 122.288 62.3305 122.288 64.2085 121.136C94.3766 102.536 107.821 85.4187 113.664 75.144C115.363 72.4425 116.675 69.5859 117.569 66.5965C117.837 65.7329 117.957 65.2458 117.957 65.2458C118.642 62.5885 119 59.8649 119 57.0748C119 32.761 91.9024 13.1639 58.9321 14.0275ZM60.989 78.5098C45.428 78.5098 32.8182 69.1431 32.8182 57.5841C32.8182 46.0251 45.428 36.6583 60.989 36.6583C76.55 36.6583 89.1598 46.0251 89.1598 57.5841C89.1598 69.1431 76.55 78.5098 60.989 78.5098Z" fill="url(#paint0_linear)"/>
<path d="M59.2651 0.0309901C35.0264 0.881471 14.89 19.7922 12.5637 43.9308C12.0884 48.7585 12.3636 53.4362 13.214 57.9137C13.214 57.9137 13.2891 58.439 13.5392 59.4396C14.2897 62.7915 15.4153 66.0433 16.8161 69.095C21.6938 80.6516 32.9752 99.9875 58.2895 121.024C59.8404 122.325 62.1167 122.325 63.6926 121.024C89.0069 100.013 100.288 80.6766 105.191 69.07C106.617 66.0183 107.717 62.7915 108.468 59.4146C108.693 58.439 108.793 57.8887 108.793 57.8887C109.368 54.887 109.669 51.8103 109.669 48.6585C109.669 21.193 86.9307 -0.944562 59.2651 0.0309901ZM60.9911 72.8722C47.9337 72.8722 37.3527 62.2912 37.3527 49.2338C37.3527 36.1764 47.9337 25.5954 60.9911 25.5954C74.0485 25.5954 84.6294 36.1764 84.6294 49.2338C84.6294 62.2912 74.0485 72.8722 60.9911 72.8722Z" fill="url(#paint1_linear)"/>
<path opacity="0.5" fill-rule="evenodd" clip-rule="evenodd" d="M29 49C29 66.6762 43.3238 81 61.0001 81C78.6763 81 93 66.6762 93 49C93 31.3238 78.6763 17 61.0001 17C43.3238 17 29 31.3238 29 49ZM37.3525 49.2338C37.3525 62.2912 47.9335 72.8722 60.9909 72.8722C74.0483 72.8722 84.6292 62.2912 84.6292 49.2338C84.6292 36.1764 74.0483 25.5954 60.9909 25.5954C47.9335 25.5954 37.3525 36.1764 37.3525 49.2338Z" fill="#0045FF"/>
<defs>
<linearGradient id="paint0_linear" x1="61" y1="14" x2="61" y2="122" gradientUnits="userSpaceOnUse">
<stop offset="0.1" stop-color="#19191B" stop-opacity="0"/>
<stop offset="1" stop-color="#19191B"/>
</linearGradient>
<linearGradient id="paint1_linear" x1="97.2354" y1="122" x2="14.6702" y2="117.398" gradientUnits="userSpaceOnUse">
<stop stop-color="#0045FF"/>
<stop offset="1" stop-color="#0081FF"/>
</linearGradient>
</defs>
</svg>

<?xml version="1.0" encoding="utf-8"?>
<!-- Generator: Adobe Illustrator 24.2.3, SVG Export Plug-In . SVG Version: 6.00 Build 0)  -->
<svg version="1.1" id="Capa_1" xmlns="http://www.w3.org/2000/svg" xmlns:xlink="http://www.w3.org/1999/xlink" x="0px" y="0px"
	 viewBox="0 0 122 122" style="enable-background:new 0 0 122 122;" xml:space="preserve">
<style type="text/css">
	.st0{opacity:0.1;fill:url(#SVGID_1_);enable-background:new    ;}
	.st1{fill:#1DA1F2;}
	.st2{fill-rule:evenodd;clip-rule:evenodd;fill:#2980B9;enable-background:new    ;}
</style>
<linearGradient id="SVGID_1_" gradientUnits="userSpaceOnUse" x1="61" y1="110" x2="61" y2="2" gradientTransform="matrix(1 0 0 -1 0 124)">
	<stop  offset="0.1" style="stop-color:#19191B;stop-opacity:0"/>
	<stop  offset="1" style="stop-color:#19191B"/>
</linearGradient>
<path class="st0" d="M58.9,14C30,14.8,6,31.5,3.3,52.9C2.7,57.2,3,61.3,4.1,65.3c0,0,0.1,0.5,0.4,1.4c0.9,3,2.2,5.8,3.9,8.5
	c5.8,10.2,19.3,27.3,49.4,46c1.8,1.2,4.6,1.2,6.4,0c30.2-18.6,43.6-35.7,49.5-46c1.7-2.7,3-5.6,3.9-8.5c0.3-0.9,0.4-1.4,0.4-1.4
	c0.7-2.7,1-5.4,1-8.2C119,32.8,91.9,13.2,58.9,14z M61,78.5c-15.6,0-28.2-9.4-28.2-20.9S45.4,36.7,61,36.7S89.2,46,89.2,57.6
	S76.6,78.5,61,78.5z"/>
<path class="st1" d="M59.3,0C35,0.9,14.9,19.8,12.6,43.9c-0.5,4.8-0.2,9.5,0.7,14c0,0,0.1,0.5,0.3,1.5c0.8,3.4,1.9,6.6,3.3,9.7
	C21.7,80.7,33,100,58.3,121c1.6,1.3,3.8,1.3,5.4,0c25.3-21,36.6-40.3,41.5-52c1.4-3.1,2.5-6.3,3.3-9.7c0.2-1,0.3-1.5,0.3-1.5
	c0.6-3,0.9-6.1,0.9-9.2C109.7,21.2,86.9-0.9,59.3,0z M61,72.9c-13.1,0-23.6-10.6-23.6-23.6S47.9,25.6,61,25.6s23.6,10.6,23.6,23.6
	S74,72.9,61,72.9z"/>
<path class="st2" d="M29,49c0,17.7,14.3,32,32,32c17.7,0,32-14.3,32-32S78.7,17,61,17C43.3,17,29,31.3,29,49z M37.4,49.2
	c0,13.1,10.6,23.6,23.6,23.6s23.6-10.6,23.6-23.6S74,25.6,61,25.6S37.4,36.2,37.4,49.2z"/>
</svg>
